markup/src/img/category-list.svg

<svg width="19" height="14" viewBox="0 0 19 14" fill="none" xmlns="http://www.w3.org/2000/svg">
<path d="M5.875 1.75H17.875M5.875 7H17.875M5.875 12.25H17.875M1.375 1.75H1.382V1.758H1.375V1.75ZM1.75 1.75C1.75 1.84946 1.71049 1.94484 1.64016 2.01516C1.56984 2.08549 1.47446 2.125 1.375 2.125C1.27554 2.125 1.18016 2.08549 1.10983 2.01516C1.03951 1.94484 1 1.84946 1 1.75C1 1.65054 1.03951 1.55516 1.10983 1.48484C1.18016 1.41451 1.27554 1.375 1.375 1.375C1.47446 1.375 1.56984 1.41451 1.64016 1.48484C1.71049 1.55516 1.75 1.65054 1.75 1.75ZM1.375 7H1.382V7.008H1.375V7ZM1.75 7C1.75 7.09946 1.71049 7.19484 1.64016 7.26517C1.56984 7.33549 1.47446 7.375 1.375 7.375C1.27554 7.375 1.18016 7.33549 1.10983 7.26517C1.03951 7.19484 1 7.09946 1 7C1 6.90054 1.03951 6.80516 1.10983 6.73483C1.18016 6.66451 1.27554 6.625 1.375 6.625C1.47446 6.625 1.56984 6.66451 1.64016 6.73483C1.71049 6.80516 1.75 6.90054 1.75 7ZM1.375 12.25H1.382V12.258H1.375V12.25ZM1.75 12.25C1.75 12.3495 1.71049 12.4448 1.64016 12.5152C1.56984 12.5855 1.47446 12.625 1.375 12.625C1.27554 12.625 1.18016 12.5855 1.10983 12.5152C1.03951 12.4448 1 12.3495 1 12.25C1 12.1505 1.03951 12.0552 1.10983 11.9848C1.18016 11.9145 1.27554 11.875 1.375 11.875C1.47446 11.875 1.56984 11.9145 1.64016 11.9848C1.71049 12.0552 1.75 12.1505 1.75 12.25Z" stroke="#40AC6C" stroke-width="1.5" stroke-linecap="round" stroke-linejoin="round"/>
</svg>

<svg width="19" height="14" fill="none" xmlns="http://www.w3.org/2000/svg"><path d="M5.875 1.75h12M5.875 7h12m-12 5.25h12m-16.5-10.5h.007v.008h-.007V1.75zm.375 0a.375.375 0 1 1-.75 0 .375.375 0 0 1 .75 0zM1.375 7h.007v.008h-.007V7zm.375 0A.375.375 0 1 1 1 7a.375.375 0 0 1 .75 0zm-.375 5.25h.007v.008h-.007v-.008zm.375 0a.375.375 0 1 1-.75 0 .375.375 0 0 1 .75 0z" stroke="#40AC6C" stroke-width="1.5" stroke-linecap="round" stroke-linejoin="round"/></svg>
